X: 322
T:Fairwell Ye Green Fields. JaW.321
T:Farewell Ye Green Fields,aka. JaW.321
M:6/8
L:1/8
Q:110
S:James Winder Ms, Lancashire, 1835-41
R:Jig
O:England
A:Wyresdale,Lancashire
H:1/8
Z:vmp.Chris Partington, Aug 2004
K:G
D|AEA BGB|d3c3|BdB AGA|G3-G2:|!
|:d|dBd dBd|e3 c3|Bcd {e}dcB|B3A2D|!
GEG BGB|d3 c3|BdB AGA|G3G2:|]
